X:1
T: Miss Johnson
P:O'Neill's Version
R:Reel
Q: 232
K:G
M:4/4
L:1/8
|:d1/2c1/2|:Bc de dB Be|dB gB bB gd|Bc de dc Bc|Aa ag fe dc|
Bc de dc Bc|dB gB bB gB|ba gf gf ed|eg fa ge dc|
Bc BA G2 BG|DG BG DG B2|Bc BA G2 BG|FG AB ce dc|
Bc BA G2 BG|DG BG DG Bc|dB cA BG AF|DE FG AB cA:|
